X: 1
T: Miss Caroline Thomson's Reel
C: Alexander Lebrune
R: reel
B: RSCDS 27-8(b)
Z: 1997 by John Chambers <jc:trillian.mit.edu>
M: C|
L: 1/8
K:C
|: e | "C"c2ec "G7"d2fd | "C"c2ec "G7"dBGB | "C"c2ec "F"cefa | "G7"gfed "C"c2c :|
e/f/ | "C"gecg "F"afdf | "Am"ecAc "G7"BGGf | "C"gecg "F"afdf | "G7"gfed "C"c2c |
e/f/ | "C"gecg "F"afdf | "Am"ecAc "G7"BGGe | fd"C"ec "G7"dBGB | "F"Ac"G7"Bd "C"c2c |]
